X:28
T:The Irish Washerwoman
M:6/8
L:1/8
Q:1/8=300
K:G
%%MIDI channel 1
%%MIDI program 72
%%MIDI transpose 8
%%MIDI grace 1/8
%%MIDI ratio 3 1
d/c/|:BGG DGG|BGB dcB|cAA DAA|cAc edc|
BGG DGG|BGB dcB|cBc Adc|1 BGG G2 d/c/:|2 BGG G2 g/a/|
|:bgg dgg|bgb bag|aff dff|afa agf|
egg dgg|cgg Bgg|cBc Adc|1 BGG G2 g/a/:|2 BGG G3|]
